!!!OTL: 427a. Maedchen mit den blauen Augen. / [a) Aelteres Lied.]
!!!ODT: 1839
!!!ARE: Europa, Mitteleuropa, Deutschland, Hessen, Darmstadt
!!!SCT: B0427
!!!TXL: @@DE
!!!YEM: Copyright 1995, estate of Helmut Schaffrath.
**kern	**text
*ICvox	*
*Ivox	*
*clefG2	*
*M2/4	*
*k[f#]	*
*G:	*
=1	=1
!LO:TX:a:t=Heiter.	!
{8g	Mädchen
8d	.
8b	mit
8g	den
=2	=2
8e	blau-
8e	-en
8e	Au-
8e}	-gen,
=3	=3
{4cc	komm'
4f#	mit
=4	=4
4g	mir!
4r}	.
=5	=5
{8g	Laß
8d	mich
8b	Him-
8g	-mels-
=6	=6
8e	-won-
8e	-ne
8e	ſau-
8e}	-gen,
=7	=7
{4cc	ſol-
4f#	-ge
=8	=8
4g	mir!
4r}	.
=9	=9
{8dd	Drau-
8dd	-ßen
16ddL	in
16ee	.
16ddJ	.
!LO:N:vis=8	!
16cc	dem
=10	=10
8cc	ſtil-
8b	-len
8b	Thale
8b}	.
=11	=11
{8dd	bei
8b	dem
16eeL	kla-
16dd	.
16ccJ	.
16b	-ren
=12	=12
8b	Waſ-
8a	-ſer-
8a	-fal-
8a}	-le
=13	=13
{4cc	wandeln
4f#	.
=14	=14
8g/L	wir,
8b	.
8ddJ	.
8b	ja
=15	=15
4cc	wandeln
4f#	.
=16	=16
4g	wir.
4r}	.
==	==
!!!AGN: Liebes - Lied, Liebes - Lust
!!!GTL: Liebeslieder - Liebeslust
!!!ONB: ESAC (Essen Associative Code) Database: BOEHME
!!!AMT: simple duple
!!!AIN: vox
!!!EED: Helmut Schaffrath
!!!EEV: 1.0
!!Mel. aus dem Heſſen-Darmſtädtiſchen. 1839 u. 1846.
!!@@COMMENT:"Text ʒuerſt als fl. Bl. "Fünf ſchöne neue Lieder (das 2. ), gedruckt in dieſem Jahre" (wohl um
!!1810). Fl. Bll. ſetwas ſpäter und mit einem auf das Lied beʒüglichen Holʒſchnitt) "Sieben ſchöne
!!Neue Lieder (das 1. Ganʒ neu gedruckt. Text mit einer Str. Ʒuſatʒ. )"
!!@@END:
!!!URL-scan: https://archive.org/details/BoehmeVtLieder1895/page/n349/mode/2up
!!!ENC: Anna Maria Matuszewska
!!!EEV: 2024/08/07
*-	*-
